src/images/roadmap-button.svg

<svg xmlns="http://www.w3.org/2000/svg" width="166" height="210" fill="none" viewBox="0 0 166 210"><path fill="#fff" fill-rule="evenodd" d="M117.25 58.0723V50.6111V58.0723Z" clip-rule="evenodd"/><path stroke="#fff" stroke-linecap="round" stroke-linejoin="round" stroke-width="3.546" d="M117.25 58.0723V50.6111"/><path fill="#fff" fill-rule="evenodd" d="M56.5293 109.354L62.9681 108.976L56.5293 109.354Z" clip-rule="evenodd"/><path stroke="#fff" stroke-linecap="round" stroke-linejoin="round" stroke-width="3.546" d="M56.5293 109.354L62.9681 108.976"/><path fill="#fff" fill-rule="evenodd" stroke="#fff" stroke-linecap="round" stroke-linejoin="round" stroke-width="3.546" d="M31.2836 66.0283C31.2053 62.8693 31.7596 59.7266 32.9138 56.7851C34.068 53.8437 35.7988 51.1631 38.0042 48.9011C40.2096 46.6392 42.8452 44.8416 45.7556 43.6143C48.666 42.3869 51.7924 41.7546 54.9507 41.7546C58.1091 41.7546 61.2355 42.3869 64.1459 43.6143C67.0563 44.8416 69.6918 46.6392 71.8972 48.9011C74.1026 51.1631 75.8334 53.8437 76.9876 56.7851C78.1418 59.7266 78.6961 62.8693 78.6178 66.0283C78.2394 88.3827 56.4058 109.099 56.4058 109.099C56.4058 109.099 31.7929 89.6493 31.2836 66.0283Z" clip-rule="evenodd"/><path fill="#fff" fill-rule="evenodd" stroke="#fff" stroke-linecap="round" stroke-linejoin="round" stroke-width="3.546" d="M134.166 20.3808C134.261 18.075 133.889 15.7737 133.073 13.6154C132.256 11.457 131.012 9.48605 129.415 7.82093C127.818 6.15581 125.901 4.83089 123.779 3.92582C121.658 3.02075 119.375 2.5542 117.068 2.5542C114.762 2.5542 112.479 3.02075 110.357 3.92582C108.236 4.83089 106.319 6.15581 104.722 7.82093C103.125 9.48605 101.881 11.457 101.064 13.6154C100.248 15.7737 99.876 18.075 99.9711 20.3808C100.24 36.5333 116.028 51.5066 116.028 51.5066C116.028 51.5066 133.802 37.4505 134.166 20.3808Z" clip-rule="evenodd"/><path fill="#fff" fill-rule="evenodd" d="M68.396 107.207L79.1273 101.383L68.396 107.207Z" clip-rule="evenodd"/><path stroke="#fff" stroke-linecap="round" stroke-linejoin="round" stroke-width="3.546" d="M68.396 107.207L79.1273 101.383"/><path fill="#fff" fill-rule="evenodd" d="M83.9219 97.1979L88.3381 86.3374L83.9219 97.1979Z" clip-rule="evenodd"/><path stroke="#fff" stroke-linecap="round" stroke-linejoin="round" stroke-width="3.546" d="M83.9219 97.1979L88.3381 86.3374"/><path fill="#fff" fill-rule="evenodd" d="M91.7207 78.4104L97.6502 70.8328L91.7207 78.4104Z" clip-rule="evenodd"/><path stroke="#fff" stroke-linecap="round" stroke-linejoin="round" stroke-width="3.546" d="M91.7207 78.4104L97.6502 70.8328"/><path fill="#fff" fill-rule="evenodd" d="M106.897 68.4306L114.348 65.0239L106.897 68.4306Z" clip-rule="evenodd"/><path stroke="#fff" stroke-linecap="round" stroke-linejoin="round" stroke-width="3.546" d="M106.897 68.4306L114.348 65.0239"/><path fill="#F7A501" fill-rule="evenodd" stroke="#fff" stroke-linecap="round" stroke-linejoin="round" stroke-width="3.546" d="M43.6594 67.608C43.6103 65.3378 44.2382 63.1044 45.4631 61.1927C46.6879 59.2811 48.4542 57.7778 50.5366 56.8748C52.6189 55.9717 54.923 55.7098 57.1548 56.1224C59.3866 56.535 61.4449 57.6035 63.0672 59.1914C64.6895 60.7794 65.8022 62.815 66.2634 65.0383C66.7245 67.2617 66.5132 69.5721 65.6564 71.6748C64.7996 73.7775 63.3362 75.5772 61.4528 76.8442C59.5694 78.1113 57.3515 78.7883 55.0819 78.7888C53.5978 78.8061 52.1249 78.5305 50.7474 77.9778C49.3699 77.4251 48.1148 76.6061 47.0539 75.5676C45.993 74.5292 45.1472 73.2917 44.5647 71.9259C43.9823 70.5601 43.6746 69.0928 43.6594 67.608Z" clip-rule="evenodd"/><path fill="#F7A501" fill-rule="evenodd" stroke="#fff" stroke-linecap="round" stroke-linejoin="round" stroke-width="3.546" d="M123.195 22.0038C123.195 20.8077 122.84 19.6384 122.175 18.6442C121.51 17.65 120.566 16.8757 119.46 16.4193C118.355 15.9628 117.14 15.8449 115.967 16.0804C114.795 16.3159 113.719 16.8942 112.876 17.7421C112.033 18.5899 111.46 19.6692 111.23 20.8431C111 22.017 111.124 23.2327 111.586 24.3361C112.047 25.4396 112.826 26.3812 113.823 27.0415C114.82 27.7019 115.99 28.0513 117.185 28.0456C118.782 28.0398 120.312 27.4005 121.439 26.2678C122.565 25.1352 123.197 23.6018 123.195 22.0038Z" clip-rule="evenodd"/><path fill="#fff" d="M19.5396 194.151V193.591C24.4329 193.382 26.3203 191.18 26.3203 187.335C26.3203 183.036 24.0834 179.82 16.5337 179.82H8.18012V203.588H12.7239V196.143H22.126V203.588H26.6698V194.151H19.5396ZM12.7239 191.949V184.014H16.5337C20.5881 184.014 21.7765 184.958 21.7765 188.034C21.7765 191.005 20.5881 191.949 16.5337 191.949H12.7239ZM38.5413 203.937C44.2035 203.937 47.2444 200.057 47.2444 194.57C47.2444 189.082 44.2035 185.238 38.5413 185.238C32.879 185.238 29.8382 189.082 29.8382 194.57C29.8382 200.057 32.879 203.937 38.5413 203.937ZM38.5413 199.743C35.4655 199.743 34.382 198.415 34.382 194.57C34.382 190.725 35.4655 189.432 38.5413 189.432C41.6171 189.432 42.7006 190.725 42.7006 194.57C42.7006 198.415 41.6171 199.743 38.5413 199.743ZM65.328 199.219V185.587H51.6967V189.607H60.7842V193.452C59.9104 192.158 58.5473 191.354 55.9259 191.354C51.6617 191.354 49.6694 194.43 49.6694 197.646C49.6694 200.861 51.6617 203.937 55.9259 203.937C58.5473 203.937 59.9104 203.098 60.7842 201.84V203.588H67.5999V199.219H65.328ZM57.4987 200.162C55.122 200.162 54.2132 199.044 54.2132 197.646C54.2132 196.248 55.122 195.129 57.4987 195.129C59.8755 195.129 60.7842 196.248 60.7842 197.646C60.7842 199.044 59.8755 200.162 57.4987 200.162ZM82.7385 179.121V187.754C81.5502 186.007 79.8026 185.238 77.6355 185.238C72.2179 185.238 69.8761 189.432 69.8761 194.57C69.8761 199.708 72.2179 203.937 77.6355 203.937C79.8026 203.937 81.5502 203.168 82.7385 201.386V203.588H87.2823V179.121H82.7385ZM78.5792 199.743C75.6782 199.743 74.4199 198.17 74.4199 194.57C74.4199 191.005 75.6782 189.432 78.5792 189.432C81.4803 189.432 82.7385 191.005 82.7385 194.57C82.7385 198.17 81.4803 199.743 78.5792 199.743ZM116.835 185.587H91.6694V203.588H96.2132V189.782H101.98V203.588H106.524V189.782H112.291V203.588H116.835V185.587ZM135.813 199.219V185.587H122.181V189.607H131.269V193.452C130.395 192.158 129.032 191.354 126.41 191.354C122.146 191.354 120.154 194.43 120.154 197.646C120.154 200.861 122.146 203.937 126.41 203.937C129.032 203.937 130.395 203.098 131.269 201.84V203.588H138.084V199.219H135.813ZM127.983 200.162C125.607 200.162 124.698 199.044 124.698 197.646C124.698 196.248 125.607 195.129 127.983 195.129C130.36 195.129 131.269 196.248 131.269 197.646C131.269 199.044 130.36 200.162 127.983 200.162ZM151.389 185.238C149.222 185.238 147.475 186.007 146.286 187.754V185.587H141.742V209.18H146.286V201.386C147.475 203.168 149.222 203.937 151.389 203.937C156.807 203.937 159.149 199.708 159.149 194.57C159.149 189.432 156.807 185.238 151.389 185.238ZM150.446 199.743C147.544 199.743 146.286 198.17 146.286 194.57C146.286 191.005 147.544 189.432 150.446 189.432C153.347 189.432 154.605 191.005 154.605 194.57C154.605 198.17 153.347 199.743 150.446 199.743Z"/></svg>

<svg fill="none" viewBox="0 0 166 210"><path fill="#fff" fill-rule="evenodd" d="M117.25 58.072v-7.46 7.46z" clip-rule="evenodd"/><path stroke="#fff" stroke-linecap="round" stroke-linejoin="round" stroke-width="3.546" d="M117.25 58.072v-7.46"/><path fill="#fff" fill-rule="evenodd" d="M56.53 109.354l6.438-.378-6.439.378z" clip-rule="evenodd"/><path stroke="#fff" stroke-linecap="round" stroke-linejoin="round" stroke-width="3.546" d="M56.53 109.354l6.438-.378"/><path fill="#fff" fill-rule="evenodd" stroke="#fff" stroke-linecap="round" stroke-linejoin="round" stroke-width="3.546" d="M31.284 66.028a23.697 23.697 0 016.72-17.127 23.674 23.674 0 0116.947-7.146A23.663 23.663 0 0171.897 48.9a23.69 23.69 0 016.72 17.127c-.377 22.356-22.21 43.073-22.21 43.073S31.794 89.65 31.285 66.03zm102.882-45.647a17.137 17.137 0 00-4.751-12.56 17.11 17.11 0 00-19.058-3.895 17.116 17.116 0 00-9.293 9.69 17.135 17.135 0 00-1.093 6.765c.269 16.152 16.057 31.126 16.057 31.126s17.774-14.056 18.138-31.126z" clip-rule="evenodd"/><path fill="#fff" fill-rule="evenodd" d="M68.396 107.207l10.731-5.824-10.731 5.824z" clip-rule="evenodd"/><path stroke="#fff" stroke-linecap="round" stroke-linejoin="round" stroke-width="3.546" d="M68.396 107.207l10.731-5.824"/><path fill="#fff" fill-rule="evenodd" d="M83.922 97.198l4.416-10.86-4.416 10.86z" clip-rule="evenodd"/><path stroke="#fff" stroke-linecap="round" stroke-linejoin="round" stroke-width="3.546" d="M83.922 97.198l4.416-10.86"/><path fill="#fff" fill-rule="evenodd" d="M91.72 78.41l5.93-7.577-5.93 7.577z" clip-rule="evenodd"/><path stroke="#fff" stroke-linecap="round" stroke-linejoin="round" stroke-width="3.546" d="M91.72 78.41l5.93-7.577"/><path fill="#fff" fill-rule="evenodd" d="M106.897 68.43l7.451-3.406-7.451 3.407z" clip-rule="evenodd"/><path stroke="#fff" stroke-linecap="round" stroke-linejoin="round" stroke-width="3.546" d="M106.897 68.43l7.451-3.406"/><path fill="#F7A501" fill-rule="evenodd" stroke="#fff" stroke-linecap="round" stroke-linejoin="round" stroke-width="3.546" d="M43.66 67.608a11.433 11.433 0 016.877-10.733 11.417 11.417 0 0112.53 2.316 11.43 11.43 0 01-7.985 19.598 11.287 11.287 0 01-10.517-6.863 11.303 11.303 0 01-.906-4.318zm79.535-45.604a6.043 6.043 0 00-7.228-5.924 6.036 6.036 0 00-4.737 4.763 6.038 6.038 0 002.593 6.198 6.036 6.036 0 003.362 1.005 6.032 6.032 0 006.01-6.042z" clip-rule="evenodd"/><path fill="#fff" d="M19.54 194.151v-.56c4.893-.209 6.78-2.411 6.78-6.256 0-4.299-2.237-7.515-9.786-7.515H8.18v23.768h4.544v-7.445h9.402v7.445h4.544v-9.437h-7.13zm-6.816-2.202v-7.935h3.81c4.054 0 5.242.944 5.242 4.02 0 2.971-1.188 3.915-5.242 3.915h-3.81zm25.817 11.988c5.663 0 8.703-3.88 8.703-9.367 0-5.488-3.04-9.332-8.703-9.332-5.662 0-8.703 3.844-8.703 9.332 0 5.487 3.041 9.367 8.703 9.367zm0-4.194c-3.075 0-4.159-1.328-4.159-5.173 0-3.845 1.084-5.138 4.16-5.138 3.075 0 4.159 1.293 4.159 5.138 0 3.845-1.084 5.173-4.16 5.173zm26.787-.524v-13.632H51.697v4.02h9.087v3.845c-.874-1.294-2.237-2.098-4.858-2.098-4.264 0-6.257 3.076-6.257 6.292 0 3.215 1.993 6.291 6.257 6.291 2.621 0 3.984-.839 4.858-2.097v1.748H67.6v-4.369h-2.272zm-7.83.943c-2.376 0-3.285-1.118-3.285-2.516s.909-2.517 3.286-2.517 3.285 1.119 3.285 2.517-.908 2.516-3.285 2.516zm25.24-21.041v8.633c-1.188-1.747-2.935-2.516-5.103-2.516-5.417 0-7.759 4.194-7.759 9.332 0 5.138 2.342 9.367 7.76 9.367 2.167 0 3.914-.769 5.103-2.551v2.202h4.543v-24.467H82.74zm-4.159 20.622c-2.9 0-4.16-1.573-4.16-5.173 0-3.565 1.26-5.138 4.16-5.138 2.901 0 4.16 1.573 4.16 5.138 0 3.6-1.259 5.173-4.16 5.173zm38.256-14.156H91.669v18.001h4.544v-13.806h5.767v13.806h4.544v-13.806h5.767v13.806h4.544v-18.001zm18.978 13.632v-13.632h-13.632v4.02h9.088v3.845c-.874-1.294-2.237-2.098-4.859-2.098-4.264 0-6.256 3.076-6.256 6.292 0 3.215 1.992 6.291 6.256 6.291 2.622 0 3.985-.839 4.859-2.097v1.748h6.815v-4.369h-2.271zm-7.83.943c-2.376 0-3.285-1.118-3.285-2.516s.909-2.517 3.285-2.517c2.377 0 3.286 1.119 3.286 2.517s-.909 2.516-3.286 2.516zm23.406-14.924c-2.167 0-3.914.769-5.103 2.516v-2.167h-4.544v23.593h4.544v-7.794c1.189 1.782 2.936 2.551 5.103 2.551 5.418 0 7.76-4.229 7.76-9.367 0-5.138-2.342-9.332-7.76-9.332zm-.943 14.505c-2.902 0-4.16-1.573-4.16-5.173 0-3.565 1.258-5.138 4.16-5.138 2.901 0 4.159 1.573 4.159 5.138 0 3.6-1.258 5.173-4.159 5.173z"/></svg>
